src/assets/outline/ShieldCross.svg

<svg width="24" height="24" viewBox="0 0 24 24"  xmlns="http://www.w3.org/2000/svg">
<path d="M11.9999 22.7599C10.9099 22.7599 9.8299 22.4399 8.9799 21.8099L4.6799 18.5999C3.5399 17.7499 2.6499 15.9699 2.6499 14.5599V7.11994C2.6499 5.57994 3.7799 3.93994 5.2299 3.39994L10.2199 1.52994C11.2099 1.15994 12.7699 1.15994 13.7599 1.52994L18.7499 3.39994C20.1999 3.93994 21.3299 5.57994 21.3299 7.11994V14.5499C21.3299 15.9699 20.4399 17.7399 19.2999 18.5899L14.9999 21.7999C14.1699 22.4399 13.0899 22.7599 11.9999 22.7599ZM10.7499 2.93994L5.7599 4.80994C4.9099 5.12994 4.1599 6.20994 4.1599 7.12994V14.5599C4.1599 15.5099 4.8299 16.8399 5.5799 17.3999L9.8799 20.6099C11.0299 21.4699 12.9699 21.4699 14.1299 20.6099L18.4299 17.3999C19.1899 16.8299 19.8499 15.5099 19.8499 14.5599V7.11994C19.8499 6.20994 19.0999 5.12994 18.2499 4.79994L13.2599 2.92994C12.5799 2.68994 11.4199 2.68994 10.7499 2.93994Z" />
<path d="M14.1498 14.1899C13.9598 14.1899 13.7698 14.1199 13.6198 13.9699L9.36984 9.71988C9.07984 9.42988 9.07984 8.94988 9.36984 8.65988C9.65984 8.36988 10.1398 8.36988 10.4298 8.65988L14.6798 12.9099C14.9698 13.1999 14.9698 13.6799 14.6798 13.9699C14.5298 14.1099 14.3398 14.1899 14.1498 14.1899Z" />
<path d="M9.85004 14.2299C9.66004 14.2299 9.47004 14.1599 9.32004 14.0099C9.03004 13.7199 9.03004 13.2399 9.32004 12.9499L13.57 8.69992C13.86 8.40992 14.34 8.40992 14.63 8.69992C14.92 8.98992 14.92 9.46992 14.63 9.75992L10.38 14.0099C10.24 14.1599 10.04 14.2299 9.85004 14.2299Z" />
</svg>

<?xml version="1.0" encoding="UTF-8"?>
<svg width="24" height="24" viewBox="0 0 24 24" xmlns="http://www.w3.org/2000/svg">
 <path d="m12 22.76c-1.09 0-2.17-0.32-3.02-0.95l-4.3-3.21c-1.14-0.85-2.03-2.63-2.03-4.04v-7.44c0-1.54 1.13-3.18 2.58-3.72l4.99-1.87c0.99-0.37 2.55-0.37 3.54 0l4.99 1.87c1.45 0.54 2.58 2.18 2.58 3.72v7.43c0 1.42-0.89 3.19-2.03 4.04l-4.3 3.21c-0.83 0.64-1.91 0.96-3 0.96zm-1.25-19.82-4.99 1.87c-0.85 0.32-1.6 1.4-1.6 2.32v7.43c0 0.95 0.67 2.28 1.42 2.84l4.3 3.21c1.15 0.86 3.09 0.86 4.25 0l4.3-3.21c0.76-0.57 1.42-1.89 1.42-2.84v-7.44c0-0.91-0.75-1.99-1.6-2.32l-4.99-1.87c-0.68-0.24-1.84-0.24-2.51 0.01z"/>
 <path d="m14.15 14.19c-0.19 0-0.38-0.07-0.53-0.22l-4.25-4.25c-0.29-0.29-0.29-0.77 0-1.06s0.76996-0.29 1.06 0l4.25 4.25c0.29 0.29 0.29 0.77 0 1.06-0.15 0.14-0.34 0.22-0.53 0.22z"/>
 <path d="m9.85 14.23c-0.19 0-0.38-0.07-0.53-0.22-0.29-0.29-0.29-0.77 0-1.06l4.25-4.25c0.29-0.29 0.77-0.29 1.06 0s0.29 0.77 0 1.06l-4.25 4.25c-0.14 0.15-0.34 0.22-0.52996 0.22z"/>
</svg>
